X:5946
T:Gan ainm
R:Hornpipe
S:
H:
N:
D:Milltown Malbay Concertina Recital
Z:Adrian Scahill
M:4/4
L:1/8
K:G
DGGA BDcD|BDAD G2(3ABc|dggd (3efg ag|fdcA BdAF|\
DGGA BDcD|BDAD G2(3ABc|dgg2 fdcA|1 BdAF G3E:|2 BdAF G3B||\
dggd (3efg af|dggg bgaf|defg abag|fdcA BdAF|\
DGGA BDcD|BDAD G2(3ABc|dgg2 fdcA|BdAF G3B:||\
